X:1
T:He’s Mighty to Save
T:He’s Mighty to Save
T:William James Kirkpatrick
T:Eliza Edmunds Hewitt, 1889
T:Public Domain Courtesy of the Cyber Hymnal™
T:Public Domain Courtesy of the Cyber Hymnal™
C:William James Kirkpatrick
Z:Public Domain
Z:Courtesy of the Cyber Hymnal™
%%score ( 1 2 ) ( 3 4 )
L:1/8
Q:1/4=97
M:4/4
K:Db
V:1 treble 
V:2 treble 
V:3 bass 
V:4 bass 
V:1
 [FA]2 [FA][GB] [FA]2 [DF]D | [DB]2 [DB][GB] [FA]4 | [FA]2 [EG][DF] [FA]2 [EG][DF] | %3
w: 1.~Je- sus is wait- ing His|grace to be- stow;|Sin “red like crim- son” He|
w: 2.~Stand- ing a- lone in the|strife we shall fail,|Close to our lead- er His|
w: 3.~Take Him the bur- den that|weighs on your heart,|Take Him the trou- ble, He’ll|
w: 4.~Up from the val- ley the|dark- ness is gone|When Je- sus brings there the|
 [EA]2 [FA][DF] [CE]4 | [DF]2 [DF][EG] [FA]2 [DF]D | [DB]2 [GB][Gc] [Gd]4 | %6
w: makes white as snow;|Lov- ing us free- ly, His|life- blood He gave;|
w: might will pre- vail;|Or if a bless- ing for|oth- ers we crave,|
w: com- fort im- part;|Held by His hand, we can|walk on the wave;|
w: beau- ty of dawn;|Vic- tory, glad vic- tory, we|sing o’er the grave!|
 [Fd]2 [Ac][GB] [FA] [Fd]2 [DF] | [CA]2 [CG][CE] D4 ||"^Refrain" [FA]2 [FA]>[FA] [FA]4 | %9
w: Bless- èd Re- deem- er! He’s|migh- ty to save.||
w: Pray on, be- liev- ing— He’s|migh- ty to save.|Migh- ty to save,|
w: Look up to Je- sus, He’s|migh- ty to save.||
w: Glo- ry to Je- sus, He’s|migh- ty to save.||
 [GB]2 [GB]>[GB] [FA]4 | [Ad]2 [Ad][Ad] [=Gd]2 [Gc][Gd] | [Ae]6 z2 | [FA]2 [FA]>[FA] [Fd]4 | %13
w: ||||
w: migh- ty to save,|Je- sus is migh- ty to|save;|Migh- ty to save,|
w: ||||
w: ||||
 [GB]2 [GB]>[GB] !fermata![Gd]4 | [FA]2 [FA][FA] [Gc] [Ge]2 [Ge] | [Fd]6 z2 |] %16
w: |||
w: migh- ty to save,|Je- sus is migh- ty to|save.|
w: |||
w: |||
V:2
 x7 D | x8 | x8 | x8 | x7 D | x8 | x8 | x4 D4 || x8 | x8 | x8 | x8 | x8 | x8 | x8 | x8 |] %16
V:3
 [D,D]2 [D,D][D,D] [D,D]2 [D,A,][D,F,] | G,2 [G,B,][G,B,] [D,D]4 | %2
w: |is * * *|
 [D,D]2 [D,A,][D,A,] [D,D]2 [D,A,][D,A,] | [C,A,]2 [D,A,][D,A,] [A,,A,]4 | %4
w: ||
 [D,A,]2 [D,A,][D,A,] [D,D]2 [D,A,][D,F,] | G,2 [G,D][G,D] [G,B,]4 | %6
w: |migh- * * *|
 [D,A,]2 [D,D][D,D] [D,D] [D,A,]2 [D,A,] | [A,,A,]2 [A,,E,][A,,G,] [D,F,]4 || %8
w: ||
 [D,D]2 [D,D]>[D,D] [D,D]4 | [G,D]2 [G,D]>[G,D] [D,D]4 | [F,D]2 [F,A,][F,A,] [E,B,]2 [E,B,][E,B,] | %11
w: ||* * * * * ty|
 [A,C]2 [A,C]>[A,C] C2 F,E, | [D,D]2 [D,D]>[D,D] A,2 D2 | [G,D]2 [G,D]>[G,D] !fermata![G,B,]4 | %14
w: to save, He is * *|||
 [A,D]2 [A,D][A,D] [A,E] [A,C]2 [A,C] | [D,A,]6 z2 |] %16
w: ||
V:4
 x8 | G,2 x6 | x8 | x8 | x8 | G,2 x6 | x8 | x8 || x8 | x8 | x8 | x4 (A,G,) x2 | x4 D,4 | x8 | x8 | %15
 x8 |] %16

